src/components/00-materials/images-raw/P&C/Fryer.svg

<svg xmlns="http://www.w3.org/2000/svg" viewBox="0 0 96 96"><g fill="none" stroke="#00008f" stroke-linecap="round" stroke-linejoin="round" stroke-width="2"><rect x="12.17" y="42.39" width="71.67" height="38.52" rx="11.73"/><path d="M83.83 53.14H91m-86 0h7.17m12.77 20.93a2.36 2.36 0 1 1-2.35-2.36 2.36 2.36 0 0 1 2.35 2.36zm9.44 0A2.36 2.36 0 1 1 32 71.71a2.36 2.36 0 0 1 2.38 2.36zM19.33 42.88v-5.61h57.34v6.05M19.33 27.05h57.33v5.11H19.33z"/><path d="M19.33 32.16h57.33v5.11H19.33zm0-10.22h57.33v5.11H19.33zm7.17 0v20.45m7.17-20.45v20.45m7.16-20.45v20.45M48 21.94v20.45m7.17-27.3v27.3m7.16-27.3v27.3m7.17-20.45v20.45m-14.33-27.3h29.46"/></g></svg>

<svg xmlns="http://www.w3.org/2000/svg" viewBox="0 0 96 96"><defs><style>.cls-2{fill:none;stroke:#00008f;stroke-linecap:round;stroke-linejoin:round;stroke-width:2px}</style></defs><g id="Layer_2" ><g id="icons"><rect class="cls-2" x="12.17" y="42.39" width="71.67" height="38.52" rx="11.73"/><path class="cls-2" d="M83.83 53.14H91M5 53.14h7.17M24.94 74.07a2.36 2.36 0 1 1-2.35-2.36 2.36 2.36 0 0 1 2.35 2.36zM34.38 74.07A2.36 2.36 0 1 1 32 71.71a2.36 2.36 0 0 1 2.38 2.36zM19.33 42.88v-5.61h57.34v6.05M19.33 27.05h57.33v5.11H19.33z"/><path class="cls-2" d="M19.33 32.16h57.33v5.11H19.33zM19.33 21.94h57.33v5.11H19.33zM26.5 21.94v20.45M33.67 21.94v20.45M40.83 21.94v20.45M48 21.94v20.45M55.17 15.09v27.3M62.33 15.09v27.3M69.5 21.94v20.45M55.17 15.09h29.46"/></g></g></svg>
